!!!OTL@@DE: Warnung vor dem Rhein
!!!ONB: Mel. von P&ouml;thko, Im Leipziger Commersbuch von 1848
!!!ODT: 1848
!!!OMD: Lebhaft
!!!LYR: Simrock, Karl
!!!LDT: 1840
!!!OCL: Erk, Ludwig
!!!GCO: Deutscher Liederschatz, Band 3
**kern	**kern	**kern
*staff3	*staff2	*staff1
*Ipiano	*Ipiano	*Ivox
*clefF4	*clefG2	*clefG2
*k[b-e-a-]	*k[b-e-a-]	*k[b-e-a-]
*M6/8	*M6/8	*M6/8
*MM60	*MM60	*MM60
8r	16e-/LL	16e-/LL
.	16f/JJ	16f/JJ
=1	=1	=1
*^	*	*
(8E-\L	4.E-/	4g/	4g/
8B-\	.	.	.
8e-\J)	.	16g/LL	16g/LL
.	.	16a-/JJ	16a-/JJ
*v	*v	*	*
(8G\L	4b-\	4b-\
8B-\)	.	.
8G\J	8e-/	8e-/
=2	=2	=2
*^	*	*
8A-\L	(4A-/	(8.cc\L	8.cc\L
8e-\)	.	.	.
.	.	16b-\k	16b-\k
8F#\J	8F#/	8an\J)	8an\J
(8G\L	4.G/	4b-\	4b-\
8B-\	.	.	.
8e-\J)	.	8g/ 8b-/	8b-\
=3	=3	=3	=3
*	*	*^	*
8BB-/L	(4.BB-\	4g\	4ee-\	8.ee-/L
8E-/	.	.	.	.
.	.	.	.	16e-/k
8G/J)	.	[8e-\	8e-/	8e-/J
4.ryy	(8BB-\L	4e-\]	8.g/L	(8.g/L
.	8E-\	.	.	.
.	.	.	16f/k	16f/k)
.	8G\J)	8e-\	8e-/J	8e-/J
=4	=4	=4	=4	=4
(8BB-/L	4.BB-\	[4.b-/	[4.d\	[4.b-\
8D/	.	.	.	.
8F/J	.	.	.	.
*	*	*	*^	*
&(4B-/&)	4BB-\)	8b-/]	4r	8d\]	8b-\]
*	*	*	*v	*v	*
.	.	8r	.	8r
8r	8r	8ryy	8b-\	16b-/LL
.	.	.	.	16b-/JJ
*	*	*v	*v	*
=5	=5	=5	=5
(8A-\L	4.A-/	(8cc\L	8cc\L
8B-\	.	8b-\)	8b-\
8f\J)	.	8dd\J	8dd\J
(8G\L	4.G/	(8.ff\L	8.ff\L
8B-\	.	.	.
.	.	16ee-\k	16ee-\k
8e-\J)	.	8g\ 8b-\J)	8b-\J
=6	=6	=6	=6
(8D\L	4.D/	(8.a-/ 8.cc/L	(8.cc\L
8F\	.	.	.
.	.	16g/ 16b-/k	16b-\k)
8B-\J)	.	8f/) 8a-/J	8a-\J
8E-\L	(4.E-/	4e-/ 4g/	4g/
8B-\)	.	.	.
8G\J	.	8b-\ 8ee-\	8ee-\
=7	=7	=7	=7
*	*	*^	*
4.AA-/	(8AA-\L	(8dd/L	4a-\	8dd\L
.	8C\	8cc/)	.	8cc\
.	8F\J)	8a-/J	8f\	8a-\J
*	*	*v	*v	*
(8BB-/L	4.BB-\	(8.e-/ 8.g/L	8.g/L
8B-/	.	.	.
.	.	16f/) 16a-/k	16a-/k
8A-/J)	.	8d/ 8f/J	8f/J
*v	*v	*	*
=8	=8	=8
*	*^	*
8E-\ (8G\L	(8e-/L	4.e-\	4.e-/
8B-\	8g/	.	.
8G\J	8b-/J	.	.
8E-\L)	&(8ee-/L&)	4g\)	4r
8B-\	8b-/	.	.
8G\J	8b-/J	8r	8b-\
=9	=9	=9	=9
*^	*	*	*
8r	8BB-\ 8F\L	(8cc/L	4a-\	8cc\L
(4B-/	8B-\	8b-/	.	8b-\
.	8A-\J)	8dd/J)	8f\	8dd\J
&(8B-/&)	(8G\L	8.ff/L	8b-\L	8.ff\L
4r	8B-\)	.	8g\	.
.	.	16ee-/k	.	16ee-\k
.	8E-\J	8b-/J	8g\J	8b-\J
*	*	*v	*v	*
=10	=10	=10	=10
(8D\L	4.D/	(8.a-/ 8.cc/L	(8.cc\L
8F\	.	.	.
.	.	16g/ 16b-/k	16b-\k)
8B-\J)	.	8f/) 8a-/J	8a-\J
8E-\L	(4.E-/	4e-/ 4g/	4g/
8B-\)	.	.	.
8G\J	.	8b-\ 8ee-\	8ee-\
=11	=11	=11	=11
*	*	*^	*
(4.AA-/	8AA-\L	(8dd/L	4a-\	8dd\L
.	8C\	8cc/)	.	8cc\
.	8F\J)	8a-/J	8f\	8a-\J
*	*	*v	*v	*
8BB-/L	4BB-\	(8.e-/ 8.g/L	8.g/L
8B-/	.	.	.
.	.	16f/ 16a-/k	16a-/k
8A-/J	8BB-\	8d/) 8f/J	8f/J
*v	*v	*	*
=12	=12	=12
*	*^	*
8E-\ (8G\L	4.e-\	(8e-/L	4.e-/
8B-\	.	8g/	.
8G\J	.	8b-/J	.
*	*v	*v	*
4EE-/ 4E-/)	4g\ 4ee-\)	4r
==	==	==
*-	*-	*-
!!!ENC: Craig Stuart Sapp
!!!END: 2004/05/21/
!!!EFL: 405/600
